X:1
T:Ring Out the Bells for Christmas
T:William Augustine Ogden, 1870
T:Ring Out the Bells for Christmas
T:Public Domain
T:Public Domain
T:Public Domain
C:William Augustine Ogden, 1870
Z:Public Domain
%%score ( 1 2 ) ( 3 4 )
L:1/8
M:4/4
K:Bb
V:1 treble 
V:2 treble 
V:3 bass 
V:4 bass 
V:1
 F | BFDB, F2 FF | [Ec][EA][EG][EA] [DB]3 F | BFDB, CDE[EG] | [DF][DF][EA][EA] [DB]3 (A/B/) | %5
w: 1.~Ring|the bells for Christ- mas, The hap-|wild, the ho- ly child With-|the cra- dle lay. O won- der- ful!|ger lone; His pal- ace is *|
w: 2.~On|’lem’s qui- et hill- side, In ag-|notes the glo- ry floats, “Glo-|to God on high.” Yet wakes the sun|was born, And still He comes *|
w: 3.~Wher-|His sweet lambs ga- ther, With- in|dear is wait- ing near, As|the days of old. In each young heart|less face, You see the ho- *|
w: 4.~In|a dark- some cot- tage, In many|bleak, with shiv- ering cheek, The|less child you meet. Gaze upon the pale,|ering sore. You see the souls *|
w: 5.~Then|your glad- some car- ols, And hail|light is pass- ing bright, It|on ev- ery- one; And feast Christ’s lit-|phans call, For He Who chose *|
 [Fc][Fc][Fd][Fd] [Fc]2 [FA][FA] | [=Ec][EB][EA][EG] (A2 F)(A/B/) | %7
w: sta- ble, And Ma- ry’s arms His|throne. * * * * * * *|
w: greet you On ev- ery Christ- mas|morn. * * * * * * *|
w: Je- sus, Who grew in truth and|grace. Ring out the bells * for *|
w: lov- eth, The Christ child at the|door. * * * * * * *|
w: man- ger, He lov- eth one and|all. * * * * * * *|
 [Fc][Fc][Fd][Fd] [Fc]2 [FA][FA] | [=Ec][EB][EA][EG] F3 ||"^Refrain" F | BFDB, F2 FF | %11
w: ||||
w: ||||
w: The mer- ry, mer- ry Christ- mas,|Ring out the bells for|mas,|hap- py, hap- py day. * *|
w: ||||
w: ||||
 [Fc][FA][FG]F [Fd]2 [DB]F | BFDB, F2 FF | [Ec][EA][EG][EA] [DB]3 |] %14
w: |||
w: |||
w: |||
w: |||
w: |||
V:2
 F | BFDB, F2 FF | x7 F | BFDB, CDE x | x7 F | x8 | x4 F3 F | x8 | x4 F3 || F | BFDB, F2 FF | %11
w: out|py hap- py day; In win- ter|in|the Sav- ior Is in the man-|a|||||||
w: Beth-|es long gone by, In an- gel|ry|as joy- ous As when the Lord|to|||||||
w: e’er|this gen- tle fold The Sav- ior|in|you see Him, In ev- ery guile-|ly||Christ- mas,||Christ-|The||
w: many|a crowd- ed street, In win- ter|home-|wan fea- tures, The feet with wand-|He|||||||
w: sing|the new- born sun; For Christ- mas|smiles|tle child- ren, His poor, his or-|the|||||||
 x3 F x2 F x | BFDB, F2 FF | x7 |] %14
w: |||
w: |||
w: |||
w: |||
w: |||
V:3
 F, | B,F,D,B,, F,2 F,F, | [F,A,][F,C][F,C][F,C] [B,,B,]3 F, | B,F,D,B,, C,D,E,[D,B,] | %4
 [F,B,][F,B,][F,C][F,C] [B,,B,]3 (F,/G,/) | [F,A,][F,A,][F,B,][F,B,] [F,A,]2 [F,C]F, | %6
 [C,G,][C,G,][C,C][C,C] (C2 A,)(F,/G,/) | [F,A,][F,A,][F,B,][F,B,] [F,A,]2 [F,C]F, | %8
 [C,G,][C,G,][C,C][C,B,] (F,E,D,) || [F,A,] | B,F,D,B,, F,2 F,F, | %11
 [F,A,][F,C][F,C][F,A,] [B,,B,]2 [B,,B,]F, | B,F,D,B,, F,2 F,F, | [F,A,][F,C][F,C]F, [B,,F,]3 |] %14
V:4
 F, | B,F,D,B,, F,2 F,F, | x7 F, | B,F,D,B,, C,D,E, x | x7 F, | x7 F, | x4 F,3 F, | x7 F, | %8
 x4 A,3 || x | B,F,D,B,, F,2 F,F, | x7 F, | B,F,D,B,, F,2 F,F, | x3 F, x3 |] %14

